web/public/art/spice-tl-static.svg

<svg xmlns="http://www.w3.org/2000/svg" viewBox="0 0 150 150"><g fill="none" stroke-linecap="round"><path
      stroke="#cf8b35"
      stroke-opacity=".85"
      stroke-width="2"
      d="M8 94V30L30 8h72"
    /><path stroke="#cf8b35" stroke-opacity=".42" stroke-width="1.3" d="M18 84V34l16-16h58" /><path
      stroke="#cf8b35"
      stroke-opacity=".68"
      stroke-width="1.4"
      d="m20 74 20-20h22l16-16"
    /><path stroke="#cf8b35" stroke-opacity=".48" d="M16 102h32l14 16" /><circle
      cx="36"
      cy="28"
      r="3"
      fill="#f0a830"
      fill-opacity=".65"
    /><circle cx="52" cy="28" r="3" fill="#f0a830" fill-opacity=".65" /><circle
      cx="68"
      cy="28"
      r="3"
      fill="#f0a830"
      fill-opacity=".65"
    /><path
      stroke="#3aa7d9"
      stroke-dasharray="8 12"
      stroke-opacity=".38"
      stroke-width="1.2"
      d="M22 90q16-18 32 0t30 0"
    /></g></svg>

<svg xmlns='http://www.w3.org/2000/svg' viewBox='0 0 150 150'>
  <g fill='none' stroke-linecap='round'><path stroke='#cf8b35' stroke-opacity='.85' stroke-width='2' d='M8 94 L8 30 L30 8 L102 8'/>
  <path stroke='#cf8b35' stroke-opacity='.42' stroke-width='1.3' d='M18 84 L18 34 L34 18 L92 18'/>
  <path stroke='#cf8b35' stroke-opacity='.68' stroke-width='1.4' d='M20 74 L40 54 L62 54 L78 38'/>
  <path stroke='#cf8b35' stroke-opacity='.48' d='M16 102 L48 102 L62 118'/>
  <circle fill='#f0a830' fill-opacity='.65' cx='36' cy='28' r='3'>
  </circle><circle fill='#f0a830' fill-opacity='.65' cx='52' cy='28' r='3'>
  </circle><circle fill='#f0a830' fill-opacity='.65' cx='68' cy='28' r='3'>
  </circle><path stroke='#3aa7d9' stroke-opacity='.38' stroke-width='1.2' stroke-dasharray='8 12' d='M22 90 Q38 72 54 90 Q70 108 84 90'>
  </path>
</g>
</svg>
